X: 98
T: the Silver Spire
M: 4/4
L: 1/8
Z: 2006 John Chambers <jc:trillian.mit.edu>
B: "100 Essential Irish Session Tunes" 1995 Dave Mallinson, ed.
R: Reel
K: D
   A, \
| "D"D2FE DFAc | "D"dcde fdAF | "G"GABG "D"FADF | "Em"(3GFE FD "A7"CEA,C \
| "D"D2FE DFAc | "D"dcde fdAF | "G"GABG "D"FADF | "A7"EA,CE "D"D3 :|
|: A, \
| "A"A,B,CD  EFGE | "D"FDEF GABc | "Bm"dcBA Bcde | "E7"fdgf "A7"e3A \
| "D"defd "A"cdec | "G"BcdB "D"AFDF | "G"GABG "D"FADF | "A7"EA,CE "D"D3 :|

%%sep 2 1 500
%%sep 1 1 500

